packages/core/assets/svg/screen/panel/brightness.svg

<svg  xmlns="http://www.w3.org/2000/svg" x="0" y="0" viewBox="0 0 100 100">
  <path d="M50 31c10.48 0 19 8.52 19 19s-8.52 19-19 19-19-8.52-19-19 8.52-19 19-19m0-6c-13.81 0-25 11.19-25 25s11.19 25 25 25 25-11.19 25-25-11.19-25-25-25z"/>
  <path d="M50 100c-1.66 0-3-1.34-3-3V83c0-1.66 1.34-3 3-3s3 1.34 3 3v14c0 1.66-1.34 3-3 3z"/>
  <path d="M50 20c-1.66 0-3-1.34-3-3V3c0-1.66 1.34-3 3-3s3 1.34 3 3v14c0 1.66-1.34 3-3 3z"/>
  <path d="M85.36 85.36c-1.17 1.17-3.07 1.17-4.24 0l-9.9-9.9c-1.17-1.17-1.17-3.07 0-4.24 1.17-1.17 3.07-1.17 4.24 0l9.9 9.9c1.17 1.16 1.17 3.06 0 4.24z"/>
  <path d="M28.79 28.79c-1.17 1.17-3.07 1.17-4.24 0l-9.9-9.9c-1.17-1.17-1.17-3.07 0-4.24 1.17-1.17 3.07-1.17 4.24 0l9.9 9.9c1.17 1.17 1.17 3.07 0 4.24z"/>
  <path d="M14.64 85.36c-1.17-1.17-1.17-3.07 0-4.24l9.9-9.9c1.17-1.17 3.07-1.17 4.24 0 1.17 1.17 1.17 3.07 0 4.24l-9.9 9.9c-1.16 1.17-3.06 1.17-4.24 0z"/>
  <path d="M71.21 28.79c-1.17-1.17-1.17-3.07 0-4.24l9.9-9.9c1.17-1.17 3.07-1.17 4.24 0 1.17 1.17 1.17 3.07 0 4.24l-9.9 9.9c-1.17 1.17-3.07 1.17-4.24 0z"/>
  <path d="M100 50c0 1.66-1.34 3-3 3H83c-1.66 0-3-1.34-3-3s1.34-3 3-3h14c1.66 0 3 1.34 3 3z"/>
  <path d="M20 50c0 1.66-1.34 3-3 3H3c-1.66 0-3-1.34-3-3s1.34-3 3-3h14c1.66 0 3 1.34 3 3z"/>
</svg>

<svg viewBox="0 0 100 100" fill="none" xmlns="http://www.w3.org/2000/svg">
<path d="M50 31C60.48 31 69 39.52 69 50C69 60.48 60.48 69 50 69C39.52 69 31 60.48 31 50C31 39.52 39.52 31 50 31ZM50 25C36.19 25 25 36.19 25 50C25 63.81 36.19 75 50 75C63.81 75 75 63.81 75 50C75 36.19 63.81 25 50 25Z" fill="black"/>
<path d="M50 100C48.34 100 47 98.66 47 97V83C47 81.34 48.34 80 50 80C51.66 80 53 81.34 53 83V97C53 98.66 51.66 100 50 100Z" fill="black"/>
<path d="M50 20C48.34 20 47 18.66 47 17V3C47 1.34 48.34 0 50 0C51.66 0 53 1.34 53 3V17C53 18.66 51.66 20 50 20Z" fill="black"/>
<path d="M85.36 85.36C84.19 86.53 82.29 86.53 81.12 85.36L71.22 75.46C70.05 74.29 70.05 72.39 71.22 71.22C72.39 70.05 74.29 70.05 75.46 71.22L85.36 81.12C86.53 82.28 86.53 84.18 85.36 85.36Z" fill="black"/>
<path d="M28.79 28.79C27.62 29.96 25.72 29.96 24.55 28.79L14.65 18.89C13.48 17.72 13.48 15.82 14.65 14.65C15.82 13.48 17.72 13.48 18.89 14.65L28.79 24.55C29.96 25.72 29.96 27.62 28.79 28.79Z" fill="black"/>
<path d="M14.64 85.36C13.47 84.19 13.47 82.29 14.64 81.12L24.54 71.22C25.71 70.05 27.61 70.05 28.78 71.22C29.95 72.39 29.95 74.29 28.78 75.46L18.88 85.36C17.72 86.53 15.82 86.53 14.64 85.36Z" fill="black"/>
<path d="M71.21 28.79C70.04 27.62 70.04 25.72 71.21 24.55L81.11 14.65C82.28 13.48 84.18 13.48 85.35 14.65C86.52 15.82 86.52 17.72 85.35 18.89L75.45 28.79C74.28 29.96 72.38 29.96 71.21 28.79Z" fill="black"/>
<path d="M100 50C100 51.66 98.66 53 97 53H83C81.34 53 80 51.66 80 50C80 48.34 81.34 47 83 47H97C98.66 47 100 48.34 100 50Z" fill="black"/>
<path d="M20 50C20 51.66 18.66 53 17 53H3C1.34 53 0 51.66 0 50C0 48.34 1.34 47 3 47H17C18.66 47 20 48.34 20 50Z" fill="black"/>
</svg>
